Delta/apps/scalable/firefox.svg

<?xml version="1.0" encoding="UTF-8" standalone="no"?>
<svg
   xmlns:dc="http://purl.org/dc/elements/1.1/"
   xmlns:cc="http://creativecommons.org/ns#"
   xmlns:rdf="http://www.w3.org/1999/02/22-rdf-syntax-ns#"
   xmlns:svg="http://www.w3.org/2000/svg"
   xmlns="http://www.w3.org/2000/svg"
   xmlns:xlink="http://www.w3.org/1999/xlink"
   xmlns:sodipodi="http://sodipodi.sourceforge.net/DTD/sodipodi-0.dtd"
   xmlns:inkscape="http://www.inkscape.org/namespaces/inkscape"
   width="192"
   height="192"
   viewBox="0 0 192 192"
   fill="none"
   version="1.1"
   id="svg49"
   sodipodi:docname="firefox_new.svg"
   inkscape:version="0.92.5 (2060ec1f9f, 2020-04-08)">
  <metadata
     id="metadata53">
    <rdf:RDF>
      <cc:Work
         rdf:about="">
        <dc:format>image/svg+xml</dc:format>
        <dc:type
           rdf:resource="http://purl.org/dc/dcmitype/StillImage" />
        <dc:title></dc:title>
      </cc:Work>
    </rdf:RDF>
  </metadata>
  <sodipodi:namedview
     pagecolor="#ffffff"
     bordercolor="#666666"
     borderopacity="1"
     objecttolerance="10"
     gridtolerance="10"
     guidetolerance="10"
     inkscape:pageopacity="0"
     inkscape:pageshadow="2"
     inkscape:window-width="1280"
     inkscape:window-height="745"
     id="namedview51"
     showgrid="false"
     inkscape:zoom="3.4766083"
     inkscape:cx="122.33659"
     inkscape:cy="67.236334"
     inkscape:window-x="-12"
     inkscape:window-y="-2"
     inkscape:window-maximized="1"
     inkscape:current-layer="svg49" />
  <path
     d="m 97.616602,139.86291 c 22.904528,0 41.471238,-18.74233 41.471238,-41.86291 0,-23.120273 -18.56671,-41.86291 -41.471238,-41.86291 -22.904015,0 -41.471441,18.742637 -41.471441,41.86291 0,23.12058 18.567426,41.86291 41.471441,41.86291 z"
     id="path2"
     inkscape:connector-curvature="0"
     style="clip-rule:evenodd;fill:#bd9aff;fill-rule:evenodd;stroke-width:1.02104664" />
  <path
     fill-rule="evenodd"
     clip-rule="evenodd"
     d="M124 11C126.948 15.763 129.858 20.1787 132.73 24.2472C138.298 32.1374 143.722 38.7217 149 44C157 52 163 62 167 74C166.302 69.0623 165.302 64.3956 164 60C162.698 55.6044 161.031 51.271 159 47C161.684 48.2904 165.018 51.6237 169 57C172.172 61.2816 174.931 65.9587 177.28 71.0315C180.935 80.4837 182.939 90.7578 182.939 101.5C182.939 148.168 145.108 186 98.4395 186C51.7714 186 13.9395 148.168 13.9395 101.5C13.9395 93.1448 15.1521 85.0728 17.411 77.4505C21.345 67.7922 25.208 60.3087 29 55C33.2443 49.058 38.9109 43.7246 46 39C46.3787 43.3097 46.712 46.9763 47 50C47.2879 53.0237 47.9546 56.357 49 60C54.6949 54.3132 58.6949 50.6465 61 49C63.3051 47.3535 66.3051 45.6868 70 44C68.6666 49 68 52.6667 68 55C68 57.181 68.2912 59.9446 68.8737 63.2906C68.9531 63.7466 69.1882 64.161 69.539 64.4631C73.9754 68.2834 77.7957 71.7957 81 75C83.9694 77.9695 89.0551 80.6744 96.257 83.1148C97.3032 83.4693 97.8639 84.6047 97.5094 85.6508C97.4324 85.878 97.3152 86.0895 97.1633 86.2752C95.9084 87.8095 94.8539 89.0511 94 90C92.9056 91.216 91.7406 92.3954 90.5051 93.5383C90.1831 93.8362 89.7721 94.0199 89.3354 94.0613C81.2655 94.8251 75.1536 96.138 71 98C64.5995 100.869 61 105 61 109C61 119 74 139 97 139C117 139 133 126 133 106C133 92.6667 126.667 82 114 74C118.627 73.8635 120.627 74.1968 124 75C127.373 75.8032 130.373 77.1365 133 79C128 71 123.777 66.0997 118 63C112.223 59.9003 104.556 57.2336 95 57C96.5602 45.6819 99.5602 37.3486 104 30C106.538 25.799 109.804 21.9297 113.798 18.3923C116.79 15.7419 120.191 13.2778 124 11Z"
     fill="#FF837D"
     id="path4" />
  <path
     inkscape:connector-curvature="0"
     style="clip-rule:evenodd;fill:url(#paint0_linear);fill-rule:evenodd;fill-opacity:1.0"
     id="path9"
     d="m 14.1663,95.2604 c -0.1503,2.0602 -0.2268,4.141 -0.2268,6.2396 0,46.668 37.8319,84.5 84.5,84.5 46.6685,0 84.4995,-37.832 84.4995,-84.5 0,-10.7422 -2.004,-21.0163 -5.659,-30.4685 C 174.931,65.9587 172.172,61.2816 169,57 c -3.982,-5.3763 -7.316,-8.7096 -10,-10 2.031,4.271 3.698,8.6044 5,13 1.302,4.3956 2.302,9.0623 3,14 0,0 9,24 3,45 -10.437,36.528 -43.177,53.934 -74,53 -66,-2 -82,-71 -82,-71 z" />
  <path
     style="clip-rule:evenodd;fill:url(#paint1_linear);fill-rule:evenodd"
     d="M 46 39 C 38.9109 43.7246 33.2443 49.058 29 55 C 25.208 60.3087 21.344156 67.792872 17.410156 77.451172 C 15.718142 83.160605 14.614053 89.121543 14.166016 95.265625 L 14 101 C 14 101 30 170 96 172 C 126.823 172.934 159.563 155.528 170 119 C 176 98 167 74 167 74 C 167 74 173 103 144 125 C 125.37928 139.12607 105.97923 140.04793 94.445312 138.90625 C 92.7654 138.79553 91.145263 138.57675 89.582031 138.26367 C 86.06184 137.65676 84 137 84 137 L 84.216797 136.75195 C 69.248661 131.25345 61 116.96202 61 109 C 61 105 64.5995 100.869 71 98 C 75.1536 96.138 81.266038 94.824347 89.335938 94.060547 C 89.772638 94.019147 90.183859 93.836962 90.505859 93.539062 C 91.741359 92.396162 92.9056 91.216 94 90 C 94.8539 89.0511 95.909163 87.809691 97.164062 86.275391 C 97.315962 86.089691 97.432766 85.877591 97.509766 85.650391 C 97.864266 84.604291 97.304012 83.469734 96.257812 83.115234 C 89.055912 80.674834 83.9694 77.9695 81 75 C 77.7957 71.7957 73.975462 68.283191 69.539062 64.462891 C 69.255275 64.2185 69.050627 63.898869 68.939453 63.544922 C 56.979914 59.879149 49 60 49 60 C 47.9546 56.357 47.2879 53.0237 47 50 C 46.712 46.9763 46.3787 43.3097 46 39 z "
     id="path11" />
  <path
     style="clip-rule:evenodd;fill:#f8c18c;fill-rule:evenodd"
     d="M 70 44 C 66.3051 45.6868 63.3051 47.3535 61 49 C 58.6949 50.6465 54.6949 54.3132 49 60 C 49 60 62.406306 60.89642 68.9375 63.53125 C 68.913156 63.451841 68.887422 63.373571 68.873047 63.291016 C 68.290547 59.945016 68 57.181 68 55 C 68 52.6667 68.6666 49 70 44 z "
     id="path13" />
  <path
     style="clip-rule:evenodd;fill:#f9de81;fill-rule:evenodd"
     d="M 54 80 C 44.4471 79.5935 35 86 35 86 C 35 86 40.6684 91.8958 44 94 C 47.3316 96.1042 54 98 54 98 C 54 98 54 103.00195 60 118.00195 C 62.343774 123.86139 68.355294 128.32948 74.804688 131.62109 C 65.833365 124.88926 61 115.09212 61 109 C 61 105 64.5995 100.869 71 98 C 75.1536 96.138 81.266038 94.824347 89.335938 94.060547 C 89.772638 94.019147 90.183859 93.836962 90.505859 93.539062 C 91.741359 92.396162 92.9056 91.216 94 90 C 94.8539 89.0511 95.909163 87.809691 97.164062 86.275391 C 97.176568 86.260102 97.185234 86.242195 97.197266 86.226562 C 95.445792 86.712079 90.009838 88 81 88 C 70 88 63.5529 80.4065 54 80 z M 95.847656 138.96875 C 95.860331 138.97133 96 139.00195 96 139.00195 L 96.001953 138.97266 C 95.950482 138.97134 95.899024 138.97027 95.847656 138.96875 z "
     id="path15" />
  <path
     style="clip-rule:evenodd;fill:url(#paint2_linear);fill-rule:evenodd"
     d="m 124,11 c 0,0 -9.23798,6.791832 -13,24 -3.0107,13.771504 0.88371,21.198585 5.45508,27.220703 0.52217,0.257718 1.05044,0.51398 1.54492,0.779297 5.777,3.0997 10,8 15,16 0,0 12,10 15,21 3,11 -1,24 -1,24 0,0 17,-18 20,-30 3,-12 0,-20 0,-20 l -2.50781,-6.648438 C 160.63775,58.258245 155.47388,50.473876 149,44 143.722,38.7217 138.29847,32.138247 132.73047,24.248047 129.85847,20.179547 126.948,15.763 124,11 Z"
     id="path17"
     inkscape:connector-curvature="0"
     sodipodi:nodetypes="cscscscsccccc" />
  <path
     style="clip-rule:evenodd;fill:url(#paint3_linear);fill-rule:evenodd"
     d="M 117.04102,73.986328 C 116.15014,73.961727 115.15675,73.965875 114,74 c 12.667,8 19,18.6667 19,32 0,18.98472 -14.42037,31.65439 -32.99023,32.89258 C 100.00973,138.89295 100,139 100,139 c 0,0 11.87077,2.71169 25,-3 15.44491,-6.71909 23,-14 23,-14 0,0 3,-15 -1,-25 -4,-10 -14,-18 -14,-18 -2.627,-1.8635 -5.627,-3.1968 -9,-4 -2.52975,-0.6024 -4.28636,-0.939867 -6.95898,-1.013672 z"
     id="path19"
     inkscape:connector-curvature="0"
     sodipodi:nodetypes="scsccscscss" />
  <path
     style="clip-rule:evenodd;fill:#f8c18c;fill-rule:evenodd"
     inkscape:connector-curvature="0"
     id="path21"
     d="M 116.124,62.0434 C 110.598,59.3688 103.557,57.2091 95,57 c 1.5602,-11.3181 4.5602,-19.6514 9,-27 2.538,-4.201 5.804,-8.0703 9.798,-11.6077 C 116.79,15.7419 120.191,13.2778 124,11 c -6,5.3333 -10.333,13.3333 -13,24 -2.317,9.266 -0.608,18.2805 5.124,27.0434 z" />
  <defs
     id="defs47">
    <linearGradient
       id="paint0_linear"
       x1="107.312"
       y1="54.681"
       x2="73.816902"
       y2="187.617"
       gradientUnits="userSpaceOnUse"
       xlink:href="#paint2_linear">
      <stop
         stop-color="#F9DE81"
         id="stop25" />
      <stop
         offset="0.612701"
         stop-color="#FF837D"
         stop-opacity="0.01"
         id="stop27" />
      <stop
         offset="1"
         stop-color="#8C72BD"
         id="stop29" />
    </linearGradient>
    <linearGradient
       id="paint1_linear"
       x1="63.4242"
       y1="53.1661"
       x2="15.1178"
       y2="156.099"
       gradientUnits="userSpaceOnUse">
      <stop
         stop-color="#F9DE81"
         id="stop32" />
      <stop
         offset="1"
         stop-color="#F9C28D"
         stop-opacity="0.150459"
         id="stop34" />
    </linearGradient>
    <linearGradient
       id="paint2_linear"
       x1="139.486"
       y1="58.2633"
       x2="118.514"
       y2="112.294"
       gradientUnits="userSpaceOnUse">
      <stop
         stop-color="#F9DE81"
         id="stop37" />
      <stop
         offset="1"
         stop-color="#F9DE81"
         stop-opacity="0.01"
         id="stop39" />
    </linearGradient>
    <linearGradient
       id="paint3_linear"
       x1="126.279"
       y1="97.6762"
       x2="112.591"
       y2="127.61"
       gradientUnits="userSpaceOnUse">
      <stop
         stop-color="#F9DE81"
         id="stop42" />
      <stop
         offset="1"
         stop-color="#F9DE81"
         stop-opacity="0.01"
         id="stop44" />
    </linearGradient>
  </defs>
</svg>

<svg width="192" height="192" fill="none" version="1.1" viewBox="0 0 192 192" xmlns="http://www.w3.org/2000/svg" xmlns:xlink="http://www.w3.org/1999/xlink">
 <path d="m97.617 139.86c22.905 0 41.471-18.742 41.471-41.863 0-23.12-18.567-41.863-41.471-41.863-22.904 0-41.471 18.743-41.471 41.863 0 23.121 18.567 41.863 41.471 41.863z" style="clip-rule:evenodd;fill-rule:evenodd;fill:#bd9aff;stroke-width:1.021"/>
 <path d="m124 11c2.948 4.763 5.858 9.1787 8.73 13.247 5.568 7.8902 10.992 14.474 16.27 19.753 8 8 14 18 18 30-0.698-4.9377-1.698-9.6044-3-14s-2.969-8.729-5-13c2.684 1.2904 6.018 4.6237 10 10 3.172 4.2816 5.931 8.9587 8.28 14.032 3.655 9.4522 5.659 19.726 5.659 30.468 0 46.668-37.831 84.5-84.5 84.5-46.668 0-84.5-37.832-84.5-84.5 0-8.3552 1.2126-16.427 3.4715-24.05 3.934-9.6583 7.797-17.142 11.589-22.45 4.2443-5.942 9.9109-11.275 17-16 0.3787 4.3097 0.712 7.9763 1 11 0.2879 3.0237 0.9546 6.357 2 10 5.6949-5.6868 9.6949-9.3535 12-11s5.3051-3.3132 9-5c-1.3334 5-2 8.6667-2 11 0 2.181 0.2912 4.9446 0.8737 8.2906 0.0794 0.456 0.3145 0.8704 0.6653 1.1725 4.4364 3.8203 8.2567 7.3326 11.461 10.537 2.9694 2.9695 8.0551 5.6744 15.257 8.1148 1.0462 0.3545 1.6069 1.4899 1.2524 2.536-0.077 0.2272-0.1942 0.4387-0.3461 0.6244-1.2549 1.5343-2.3094 2.7759-3.1633 3.7248-1.0944 1.216-2.2594 2.3954-3.4949 3.5383-0.322 0.2979-0.733 0.4816-1.1697 0.523-8.0699 0.7638-14.182 2.0767-18.335 3.9387-6.4005 2.869-10 7-10 11 0 10 13 30 36 30 20 0 36-13 36-33 0-13.333-6.333-24-19-32 4.627-0.1365 6.627 0.1968 10 1s6.373 2.1365 9 4c-5-8-9.223-12.9-15-16s-13.444-5.7664-23-6c1.5602-11.318 4.5602-19.651 9-27 2.538-4.201 5.804-8.0703 9.798-11.608 2.992-2.6504 6.393-5.1145 10.202-7.3923z" clip-rule="evenodd" fill="#FF837D" fill-rule="evenodd"/>
 <path d="m14.166 95.26c-0.1503 2.0602-0.2268 4.141-0.2268 6.2396 0 46.668 37.832 84.5 84.5 84.5 46.668 0 84.5-37.832 84.5-84.5 0-10.742-2.004-21.016-5.659-30.468-2.349-5.0728-5.108-9.7499-8.28-14.032-3.982-5.3763-7.316-8.7096-10-10 2.031 4.271 3.698 8.6044 5 13s2.302 9.0623 3 14c0 0 9 24 3 45-10.437 36.528-43.177 53.934-74 53-66-2-82-71-82-71z" style="clip-rule:evenodd;fill-rule:evenodd;fill:url(#paint0_linear)"/>
 <path d="m46 39c-7.0891 4.7246-12.756 10.058-17 16-3.792 5.3087-7.6558 12.793-11.59 22.451-1.692 5.7094-2.7961 11.67-3.2441 17.814l-0.16602 5.7344s16 69 82 71c30.823 0.934 63.563-16.472 74-53 6-21-3-45-3-45s6 29-23 51c-18.621 14.126-38.021 15.048-49.555 13.906-1.6799-0.11072-3.3-0.3295-4.8633-0.64258-3.5202-0.60691-5.582-1.2637-5.582-1.2637l0.2168-0.24805c-14.968-5.4985-23.217-19.79-23.217-27.752 0-4 3.5995-8.131 10-11 4.1536-1.862 10.266-3.1757 18.336-3.9395 0.4367-0.0414 0.84792-0.22358 1.1699-0.52148 1.2355-1.1429 2.3997-2.3231 3.4941-3.5391 0.8539-0.9489 1.9092-2.1903 3.1641-3.7246 0.1519-0.1857 0.2687-0.3978 0.3457-0.625 0.3545-1.0461-0.20575-2.1807-1.252-2.5352-7.2019-2.4404-12.288-5.1457-15.258-8.1152-3.2043-3.2043-7.0245-6.7168-11.461-10.537-0.28379-0.24439-0.48844-0.56402-0.59961-0.91797-11.96-3.6658-19.939-3.5449-19.939-3.5449-1.0454-3.643-1.7121-6.9763-2-10-0.288-3.0237-0.6213-6.6903-1-11z" style="clip-rule:evenodd;fill-rule:evenodd;fill:url(#paint1_linear)"/>
 <path d="m70 44c-3.6949 1.6868-6.6949 3.3535-9 5s-6.3051 5.3132-12 11c0 0 13.406 0.89642 19.938 3.5312-0.024344-0.079409-0.050078-0.15768-0.064453-0.24023-0.5825-3.346-0.87305-6.11-0.87305-8.291 0-2.3333 0.6666-6 2-11z" style="clip-rule:evenodd;fill-rule:evenodd;fill:#f8c18c"/>
 <path d="m54 80c-9.5529-0.4065-19 6-19 6s5.6684 5.8958 9 8 10 4 10 4 0 5.002 6 20.002c2.3438 5.8594 8.3553 10.328 14.805 13.619-8.9713-6.7318-13.805-16.529-13.805-22.621 0-4 3.5995-8.131 10-11 4.1536-1.862 10.266-3.1757 18.336-3.9395 0.4367-0.0414 0.84792-0.22358 1.1699-0.52148 1.2355-1.1429 2.3997-2.3231 3.4941-3.5391 0.8539-0.9489 1.9092-2.1903 3.1641-3.7246 0.012506-0.015289 0.021172-0.033196 0.033204-0.048829-1.7515 0.48552-7.1874 1.7734-16.197 1.7734-11 0-17.447-7.5935-27-8zm41.848 58.969c0.012675 0.00258 0.15234 0.0332 0.15234 0.0332l0.001953-0.02929c-0.051471-0.00132-0.10293-0.00239-0.1543-0.00391z" style="clip-rule:evenodd;fill-rule:evenodd;fill:#f9de81"/>
 <path d="m124 11s-9.238 6.7918-13 24c-3.0107 13.772 0.88371 21.199 5.4551 27.221 0.52217 0.25772 1.0504 0.51398 1.5449 0.7793 5.777 3.0997 10 8 15 16 0 0 12 10 15 21s-1 24-1 24 17-18 20-30 0-20 0-20l-2.5078-6.6484c-3.8544-9.0933-9.0183-16.878-15.492-23.352-5.278-5.2783-10.702-11.862-16.27-19.752-2.872-4.0685-5.7825-8.485-8.7305-13.248z" style="clip-rule:evenodd;fill-rule:evenodd;fill:url(#paint2_linear)"/>
 <path d="m117.04 73.986c-0.89088-0.024601-1.8843-0.020453-3.041 0.013672 12.667 8 19 18.667 19 32 0 18.985-14.42 31.654-32.99 32.893-4e-5 3.7e-4 -0.00977 0.10742-0.00977 0.10742s11.871 2.7117 25-3c15.445-6.7191 23-14 23-14s3-15-1-25-14-18-14-18c-2.627-1.8635-5.627-3.1968-9-4-2.5298-0.6024-4.2864-0.93987-6.959-1.0137z" style="clip-rule:evenodd;fill-rule:evenodd;fill:url(#paint3_linear)"/>
 <path d="m116.12 62.043c-5.526-2.6746-12.567-4.8343-21.124-5.0434 1.5602-11.318 4.5602-19.651 9-27 2.538-4.201 5.804-8.0703 9.798-11.608 2.992-2.6504 6.393-5.1145 10.202-7.3923-6 5.3333-10.333 13.333-13 24-2.317 9.266-0.608 18.28 5.124 27.043z" style="clip-rule:evenodd;fill-rule:evenodd;fill:#f8c18c"/>
 <defs>
  <linearGradient id="paint0_linear" x1="107.31" x2="73.817" y1="54.681" y2="187.62" gradientUnits="userSpaceOnUse" xlink:href="#paint2_linear">
   <stop stop-color="#F9DE81" offset="0"/>
   <stop stop-color="#FF837D" stop-opacity=".01" offset=".6127"/>
   <stop stop-color="#8C72BD" offset="1"/>
  </linearGradient>
  <linearGradient id="paint1_linear" x1="63.424" x2="15.118" y1="53.166" y2="156.1" gradientUnits="userSpaceOnUse">
   <stop stop-color="#F9DE81" offset="0"/>
   <stop stop-color="#F9C28D" stop-opacity=".15046" offset="1"/>
  </linearGradient>
  <linearGradient id="paint2_linear" x1="139.49" x2="118.51" y1="58.263" y2="112.29" gradientUnits="userSpaceOnUse">
   <stop stop-color="#F9DE81" offset="0"/>
   <stop stop-color="#F9DE81" stop-opacity=".01" offset="1"/>
  </linearGradient>
  <linearGradient id="paint3_linear" x1="126.28" x2="112.59" y1="97.676" y2="127.61" gradientUnits="userSpaceOnUse">
   <stop stop-color="#F9DE81" offset="0"/>
   <stop stop-color="#F9DE81" stop-opacity=".01" offset="1"/>
  </linearGradient>
 </defs>
</svg>
